stackviz/icons/close.svg

<?xml version="1.0" encoding="UTF-8" standalone="no"?>
<svg
   xmlns:dc="http://purl.org/dc/elements/1.1/"
   xmlns:cc="http://creativecommons.org/ns#"
   xmlns:rdf="http://www.w3.org/1999/02/22-rdf-syntax-ns#"
   xmlns:svg="http://www.w3.org/2000/svg"
   xmlns="http://www.w3.org/2000/svg"
   xmlns:sodipodi="http://sodipodi.sourceforge.net/DTD/sodipodi-0.dtd"
   xmlns:inkscape="http://www.inkscape.org/namespaces/inkscape"
   width="100%"
   height="100%"
   viewBox="0 0 48 48"
   version="1.1"
   id="svg43"
   sodipodi:docname="close.svg"
   inkscape:version="0.92.5 (2060ec1f9f, 2020-04-08)">
  <metadata
     id="metadata49">
    <rdf:RDF>
      <cc:Work
         rdf:about="">
        <dc:format>image/svg+xml</dc:format>
        <dc:type
           rdf:resource="http://purl.org/dc/dcmitype/StillImage" />
      </cc:Work>
    </rdf:RDF>
  </metadata>
  <defs
     id="defs47" />
  <sodipodi:namedview
     pagecolor="#ffffff"
     bordercolor="#666666"
     borderopacity="1"
     objecttolerance="10"
     gridtolerance="10"
     guidetolerance="10"
     inkscape:pageopacity="0"
     inkscape:pageshadow="2"
     inkscape:window-width="1528"
     inkscape:window-height="836"
     id="namedview45"
     showgrid="false"
     inkscape:zoom="13.906433"
     inkscape:cx="24"
     inkscape:cy="24"
     inkscape:window-x="72"
     inkscape:window-y="27"
     inkscape:window-maximized="1"
     inkscape:current-layer="svg43" />
  <title
     id="title2">Gnome window close</title>
  <desc
     id="desc4">http://svn.gnome.org/viewvc/gnome-icon-theme/</desc>
  <radialGradient
     id="SVGID_1_"
     cx="-66.1006"
     cy="-1047.4805"
     r="1.6055"
     gradientTransform="matrix(13.7819 0 0 -2.4587 934.9918 -2541.4377)"
     gradientUnits="userSpaceOnUse">
    <stop
       offset="0"
       style="stop-color:#000"
       id="stop6" />
    <stop
       offset="1"
       style="stop-color:#000;stop-opacity:0"
       id="stop8" />
  </radialGradient>
  <path
     style="opacity:.092;fill:url(#SVGID_1_)"
     d="M46.127,33.979c0,2.182-9.906,3.947-22.127,3.947c-12.22,0-22.126-1.768-22.126-3.947c0-2.179,9.906-3.946,22.126-3.946C36.222,30.032,46.127,31.8,46.127,33.979z"
     id="path11" />
  <radialGradient
     id="SVGID_2_"
     cx="148.2012"
     cy="-1029.5996"
     r="1.6036"
     gradientTransform="matrix(5.3381 0 0 -2.4944 -778.1038 -2532.8325)"
     gradientUnits="userSpaceOnUse">
    <stop
       offset="0"
       style="stop-color:#000"
       id="stop13" />
    <stop
       offset="1"
       style="stop-color:#000;stop-opacity:0"
       id="stop15" />
  </radialGradient>
  <path
     style="opacity:.2031;fill:url(#SVGID_2_)"
     d="M22,35.392c0,2.322-4.029,4.205-9,4.205s-9-1.883-9-4.205s4.029-4.205,9-4.205S22,33.069,22,35.392z"
     id="path18" />
  <radialGradient
     id="SVGID_3_"
     cx="127.0596"
     cy="-1016.3906"
     r="1.6066"
     gradientTransform="matrix(5.4059 0 0 -2.5259 -652.8704 -2531.8577)"
     gradientUnits="userSpaceOnUse">
    <stop
       offset="0"
       style="stop-color:#000"
       id="stop20" />
    <stop
       offset="1"
       style="stop-color:#000;stop-opacity:0"
       id="stop22" />
  </radialGradient>
  <path
     style="opacity:.2031;fill:url(#SVGID_3_)"
     d="M43,35.392c0,2.322-4.028,4.205-9,4.205c-4.971,0-9-1.883-9-4.205s4.029-4.205,9-4.205C38.972,31.187,43,33.069,43,35.392z"
     id="path25" />
  <radialGradient
     id="SVGID_4_"
     cx="-18.3965"
     cy="-229.4829"
     r="1.4931"
     gradientTransform="matrix(10.1125 0 0 -10.104 209.6891 -2299.3503)"
     gradientUnits="userSpaceOnUse">
    <stop
       offset="0"
       style="stop-color:#9C9E99"
       id="stop27" />
    <stop
       offset="1"
       style="stop-color:#868883"
       id="stop29" />
  </radialGradient>
  <path
     style="fill:#aa0000;stroke:#555753;stroke-width:0.8125;stroke-linecap:round;stroke-linejoin:round"
     d="M13.102,8.405c-1.456-0.01-2.788,0.879-3.339,2.227c-0.551,1.348-0.212,2.883,0.834,3.896l8.013,8.013l-8.013,8.013c-1.398,1.398-1.398,3.666,0,5.064c1.398,1.398,3.666,1.398,5.064,0l8.014-8.014l8.013,8.014c0.898,0.924,2.204,1.277,3.45,0.945c1.245-0.332,2.241-1.313,2.561-2.561c0.318-1.249-0.067-2.563-1.002-3.45l-8.014-8.014l8.014-8.013c1.056-1.021,1.4-2.6,0.834-3.951c-0.563-1.354-1.928-2.205-3.396-2.17c-0.93,0.037-1.809,0.437-2.447,1.111l-8.013,8.014l-8.014-8.014C14.995,8.815,14.069,8.413,13.102,8.405z"
     id="path32" />
  <path
     style="opacity:0.3621;fill:#ff0000;stroke:#FFFFFF;stroke-width:0.8125;stroke-linecap:round;stroke-linejoin:round"
     d="M 34.203125 9.4023438 C 33.539125 9.4273437 32.888594 9.7318902 32.433594 10.212891 L 32.433594 10.251953 L 24.433594 18.251953 C 24.242594 18.449953 23.978125 18.564453 23.703125 18.564453 C 23.427125 18.564453 23.163656 18.451953 22.972656 18.251953 L 14.972656 10.251953 L 14.972656 10.212891 C 14.501656 9.7158902 13.819953 9.4102969 13.126953 9.4042969 C 12.089953 9.3962969 11.096125 10.058531 10.703125 11.019531 C 10.310125 11.980531 10.556359 13.050016 11.318359 13.791016 L 11.357422 13.791016 L 19.357422 21.828125 C 19.556422 22.019125 19.667969 22.283594 19.667969 22.558594 C 19.667969 22.833594 19.556422 23.099063 19.357422 23.289062 L 11.357422 31.289062 C 10.348422 32.298063 10.348422 33.894297 11.357422 34.904297 C 12.365422 35.913297 13.963656 35.913297 14.972656 34.904297 L 22.972656 26.865234 C 23.163656 26.667234 23.427125 26.552734 23.703125 26.552734 C 23.978125 26.552734 24.242594 26.664234 24.433594 26.865234 L 32.433594 34.904297 L 32.433594 34.941406 C 33.070594 35.597406 33.983531 35.837703 34.894531 35.595703 C 35.798531 35.353703 36.475125 34.638047 36.703125 33.748047 C 36.931125 32.852047 36.681766 31.926109 36.009766 31.287109 L 35.972656 31.287109 L 27.972656 23.287109 C 27.774656 23.096109 27.660156 22.831641 27.660156 22.556641 C 27.660156 22.281641 27.772656 22.015172 27.972656 21.826172 L 35.972656 13.789062 L 36.009766 13.789062 C 36.769766 13.056063 37.025 11.892406 36.625 10.941406 C 36.226 9.9824065 35.271125 9.3783437 34.203125 9.4023438 z "
     id="path34" />
  <radialGradient
     id="SVGID_5_"
     cx="46.3672"
     cy="-666"
     r="1.8958"
     gradientTransform="matrix(7.5973 0 0 -3.8245 -329.7393 -2524.8076)"
     gradientUnits="userSpaceOnUse">
    <stop
       offset="0"
       style="stop-color:#555753"
       id="stop36" />
    <stop
       offset="1"
       style="stop-color:#555753;stop-opacity:0"
       id="stop38" />
  </radialGradient>
  <path
     style="opacity:.3;fill:url(#SVGID_5_)"
     d="M19.454,22.559c5.222-1.522,3.882,0.164,8.507,0.164l8.506,8.506l-4.704,3.64l-8-8.068l-8,7.798L11.58,30.5L19.454,22.559z"
     id="path41" />
</svg>

<?xml version="1.0" encoding="UTF-8"?>
<svg xmlns="http://www.w3.org/2000/svg" xmlns:xlink="http://www.w3.org/1999/xlink" width="100%" height="100%" viewBox="0 0 48 48"><title>Gnome window close</title><desc>http://svn.gnome.org/viewvc/gnome-icon-theme/</desc><radialGradient id="SVGID_1_" cx="-66.1006" cy="-1047.4805" r="1.6055" gradientTransform="matrix(13.7819 0 0 -2.4587 934.9918 -2541.4377)" gradientUnits="userSpaceOnUse"><stop offset="0" style="stop-color:#000"/><stop offset="1" style="stop-color:#000;stop-opacity:0"/></radialGradient><path style="opacity:.092;fill:url(#SVGID_1_)" d="M46.127,33.979c0,2.182-9.906,3.947-22.127,3.947c-12.22,0-22.126-1.768-22.126-3.947c0-2.179,9.906-3.946,22.126-3.946C36.222,30.032,46.127,31.8,46.127,33.979z"/><radialGradient id="SVGID_2_" cx="148.2012" cy="-1029.5996" r="1.6036" gradientTransform="matrix(5.3381 0 0 -2.4944 -778.1038 -2532.8325)" gradientUnits="userSpaceOnUse"><stop offset="0" style="stop-color:#000"/><stop offset="1" style="stop-color:#000;stop-opacity:0"/></radialGradient><path style="opacity:.2031;fill:url(#SVGID_2_)" d="M22,35.392c0,2.322-4.029,4.205-9,4.205s-9-1.883-9-4.205s4.029-4.205,9-4.205S22,33.069,22,35.392z"/><radialGradient id="SVGID_3_" cx="127.0596" cy="-1016.3906" r="1.6066" gradientTransform="matrix(5.4059 0 0 -2.5259 -652.8704 -2531.8577)" gradientUnits="userSpaceOnUse"><stop offset="0" style="stop-color:#000"/><stop offset="1" style="stop-color:#000;stop-opacity:0"/></radialGradient><path style="opacity:.2031;fill:url(#SVGID_3_)" d="M43,35.392c0,2.322-4.028,4.205-9,4.205c-4.971,0-9-1.883-9-4.205s4.029-4.205,9-4.205C38.972,31.187,43,33.069,43,35.392z"/><radialGradient id="SVGID_4_" cx="-18.3965" cy="-229.4829" r="1.4931" gradientTransform="matrix(10.1125 0 0 -10.104 209.6891 -2299.3503)" gradientUnits="userSpaceOnUse"><stop offset="0" style="stop-color:#9C9E99"/><stop offset="1" style="stop-color:#868883"/></radialGradient><path style="fill:url(#SVGID_4_);stroke:#555753;stroke-width:.8125;stroke-linecap:round;stroke-linejoin:round" d="M13.102,8.405c-1.456-0.01-2.788,0.879-3.339,2.227c-0.551,1.348-0.212,2.883,0.834,3.896l8.013,8.013l-8.013,8.013c-1.398,1.398-1.398,3.666,0,5.064c1.398,1.398,3.666,1.398,5.064,0l8.014-8.014l8.013,8.014c0.898,0.924,2.204,1.277,3.45,0.945c1.245-0.332,2.241-1.313,2.561-2.561c0.318-1.249-0.067-2.563-1.002-3.45l-8.014-8.014l8.014-8.013c1.056-1.021,1.4-2.6,0.834-3.951c-0.563-1.354-1.928-2.205-3.396-2.17c-0.93,0.037-1.809,0.437-2.447,1.111l-8.013,8.014l-8.014-8.014C14.995,8.815,14.069,8.413,13.102,8.405z"/><path xlink:href="#path4262" style="opacity:.3621;fill:none;stroke:#FFFFFF;stroke-width:.8125;stroke-linecap:round;stroke-linejoin:round" d="M13.126,9.405c-1.037-0.008-2.03,0.654-2.423,1.615s-0.147,2.03,0.615,2.771c0.013,0,0.025,0,0.039,0l8,8.038c0.199,0.191,0.311,0.455,0.311,0.73s-0.112,0.541-0.311,0.731l-8,8c-1.009,1.009-1.009,2.605,0,3.615c1.008,1.009,2.606,1.009,3.615,0l8-8.039c0.191-0.198,0.455-0.313,0.731-0.313c0.275,0,0.539,0.112,0.73,0.313l8,8.039c0,0.013,0,0.023,0,0.037c0.637,0.656,1.55,0.896,2.461,0.654c0.904-0.242,1.581-0.957,1.809-1.847c0.228-0.896-0.021-1.823-0.693-2.462c-0.012,0-0.024,0-0.037,0l-8-8c-0.198-0.191-0.313-0.455-0.313-0.73s0.113-0.541,0.313-0.73l8-8.038c0.013,0,0.025,0,0.037,0c0.76-0.733,1.015-1.896,0.615-2.847c-0.399-0.959-1.354-1.563-2.422-1.539c-0.664,0.025-1.315,0.328-1.77,0.809c0,0.014,0,0.025,0,0.039l-8,8.001c-0.191,0.198-0.455,0.312-0.73,0.312c-0.276,0-0.54-0.112-0.731-0.312l-8-8.001c0-0.014,0-0.025,0-0.039C14.501,9.715,13.819,9.411,13.126,9.405z"/><radialGradient id="SVGID_5_" cx="46.3672" cy="-666" r="1.8958" gradientTransform="matrix(7.5973 0 0 -3.8245 -329.7393 -2524.8076)" gradientUnits="userSpaceOnUse"><stop offset="0" style="stop-color:#555753"/><stop offset="1" style="stop-color:#555753;stop-opacity:0"/></radialGradient><path style="opacity:.3;fill:url(#SVGID_5_)" d="M19.454,22.559c5.222-1.522,3.882,0.164,8.507,0.164l8.506,8.506l-4.704,3.64l-8-8.068l-8,7.798L11.58,30.5L19.454,22.559z"/></svg>
